X:642
T:Archie Broton
C:Joe Buchanan's Scottish Tome - Page 192.3
I:192 3
C:J. Scott Skinner
Z:Carl Allison
R:Reel
L:1/8
M:4/4
K:A
f | "A"eAce a2   (ec) | "Bm"Bcde "E7"fBBf | "A"eAce a2   "Bm"(ec) | "E7"Bcde (cA) "A"A :|
f | "A"eaga faea      | "A"daca "E7"bBBd | "A"eaga "D"fa"A"ea      | "D"da"E7"Ba "A"cAAf    |
     "A"eaga "D"fa"A"ea      | "D"da"A"ca "E7"bBBd | "A"cAce a2   (ec) | "Bm"Bc"E7"de (c"A"A) A  |]
